X:981
T:Johnny O'Leary's
S:CD, Niamh Ni Charra, From Both Sides (2007)
Z:Nigel Gatherer
L:1/8
M:12/8
K:A
E | A2f ecA G2F F2A | GAB EFG A2c EFG |  A2f ecA G2F F2A | 
GAB EFG A3 A2 :: c | e/f/ec a2c e/f/ed B2c | c2d e/d/cd f2e c2d | 
e/f/ec a2c e/f/ed B2a | gfe dcB A3 A2 :: a | gfe d2e f/g/fe c2d |
efe dcB A2B c2a | gfe d2e f/g/fe c2d | efe dcB A3 A2 :|
<end>
<start>
